src/cmd/ar/sc_outlinebullet.svg

<svg viewBox="0 0 16 16" xmlns="http://www.w3.org/2000/svg">/&amp;gt;<path d="m14 2v12h-12v-12zm-1 1h-10v10h10zm-2 1c.552285 0 1 .4477153 1 1s-.447715 1-1 1-1-.4477153-1-1 .447715-1 1-1zm-2 0v1h-5v-1zm0 2v1h-3v-1zm2 3c.552285 0 1 .4477153 1 1 0 .552285-.447715 1-1 1s-1-.447715-1-1c0-.5522847.447715-1 1-1zm-2 0v1h-5v-1zm0 2v1h-2v-1zm-3 0v1h-2v-1z" fill="#232629"/></svg>

<?xml version="1.0" encoding="UTF-8" standalone="no"?>
<svg
   xmlns:dc="http://purl.org/dc/elements/1.1/"
   xmlns:cc="http://creativecommons.org/ns#"
   xmlns:rdf="http://www.w3.org/1999/02/22-rdf-syntax-ns#"
   xmlns:svg="http://www.w3.org/2000/svg"
   xmlns="http://www.w3.org/2000/svg"
   xmlns:sodipodi="http://sodipodi.sourceforge.net/DTD/sodipodi-0.dtd"
   xmlns:inkscape="http://www.inkscape.org/namespaces/inkscape"
   viewBox="0 0 16 16"
   version="1.1"
   id="svg4"
   sodipodi:docname="sc_outlinebullet.svg"
   inkscape:version="0.92.4 (5da689c313, 2019-01-14)"><metadata
   id="metadata10">
  <rdf:RDF>
    <cc:Work
       rdf:about="">
      <dc:format>image/svg+xml</dc:format>
      <dc:type
         rdf:resource="http://purl.org/dc/dcmitype/StillImage" />
    </cc:Work>
  </rdf:RDF>
</metadata>
<defs
   id="defs8" />
<sodipodi:namedview
   pagecolor="#ffffff"
   bordercolor="#666666"
   borderopacity="1"
   objecttolerance="10"
   gridtolerance="10"
   guidetolerance="10"
   inkscape:pageopacity="0"
   inkscape:pageshadow="2"
   inkscape:window-width="1920"
   inkscape:window-height="1011"
   id="namedview6"
   showgrid="true"
   inkscape:zoom="41.7193"
   inkscape:cx="8.745863"
   inkscape:cy="9.3018637"
   inkscape:window-x="0"
   inkscape:window-y="32"
   inkscape:window-maximized="1"
   inkscape:current-layer="svg4">
  <inkscape:grid
     type="xygrid"
     id="grid817" />
</sodipodi:namedview>
/&amp;gt;<path
   d="M 14,2 V 14 H 2 V 2 Z M 13,3 H 3 v 10 h 10 z m -2,1 c 0.552285,0 1,0.4477153 1,1 0,0.5522847 -0.447715,1 -1,1 C 10.447715,6 10,5.5522847 10,5 10,4.4477153 10.447715,4 11,4 Z M 9,4 V 5 H 4 V 4 Z M 9,6 V 7 H 4 V 6 Z m 2,3 c 0.552285,0 1,0.4477153 1,1 0,0.552285 -0.447715,1 -1,1 -0.552285,0 -1,-0.447715 -1,-1 0,-0.5522847 0.447715,-1 1,-1 z M 9,9 v 1 H 4 V 9 Z m 0,2 v 1 H 4 v -1 z"
   id="path2"
   inkscape:connector-curvature="0"
   style="fill:#232629"
   sodipodi:nodetypes="ccccccccccsssssccccccccccssssscccccccccc" />
</svg>
